symbols/web/perm_data_setting/materialsymbolsrounded/perm_data_setting_wght200_24px.svg

<svg xmlns="http://www.w3.org/2000/svg" height="24" width="24"><path d="M4.175 19q-.525 0-.737-.5-.213-.5.162-.875L17.45 3.8q.375-.375.875-.175t.5.75v6.2q0 .225-.15.363-.15.137-.35.137-.225 0-.363-.137-.137-.138-.137-.363V4.85L4.675 18h6.3q.2 0 .35.137.15.138.15.363 0 .225-.15.363-.15.137-.35.137ZM16.9 20.85q-.15 0-.25-.112-.1-.113-.15-.263l-.075-.525q-.55-.125-.925-.325t-.7-.575l-.525.2q-.125.05-.275 0-.15-.05-.225-.175l-.15-.225q-.075-.125-.05-.275.025-.15.15-.25l.4-.325q-.175-.525-.175-1.038 0-.512.175-1.037l-.4-.325q-.125-.125-.163-.263-.037-.137.038-.287l.15-.225q.075-.125.225-.175.15-.05.3.025l.525.2q.325-.4.7-.6.375-.2.925-.325l.075-.5q.05-.15.15-.262.1-.113.25-.113h.275q.175 0 .275.113.1.112.125.262l.075.5q.575.125.937.325.363.2.713.6l.5-.2q.15-.05.3 0t.225.175l.15.225q.075.125.038.275-.038.15-.163.25l-.375.325q.175.525.175 1.037 0 .513-.175 1.038l.375.325q.125.125.163.262.037.138-.038.263l-.15.225q-.075.125-.225.175-.15.05-.3 0l-.5-.2q-.35.375-.713.575-.362.2-.937.325l-.075.525q-.025.15-.125.263-.1.112-.275.112Zm.15-1.725q.875 0 1.512-.637.638-.638.638-1.538 0-.875-.638-1.512-.637-.638-1.512-.638-.9 0-1.525.638-.625.637-.625 1.512 0 .9.625 1.538.625.637 1.525.637Zm-5.8-7.7Z"/></svg>

<svg xmlns="http://www.w3.org/2000/svg" height="24" width="24"><path d="M4.175 19Q3.65 19 3.438 18.5Q3.225 18 3.6 17.625L17.45 3.8Q17.825 3.425 18.325 3.625Q18.825 3.825 18.825 4.375V10.575Q18.825 10.8 18.675 10.938Q18.525 11.075 18.325 11.075Q18.1 11.075 17.962 10.938Q17.825 10.8 17.825 10.575V4.85L4.675 18H10.975Q11.175 18 11.325 18.137Q11.475 18.275 11.475 18.5Q11.475 18.725 11.325 18.863Q11.175 19 10.975 19ZM16.9 20.85Q16.75 20.85 16.65 20.738Q16.55 20.625 16.5 20.475L16.425 19.95Q15.875 19.825 15.5 19.625Q15.125 19.425 14.8 19.05L14.275 19.25Q14.15 19.3 14 19.25Q13.85 19.2 13.775 19.075L13.625 18.85Q13.55 18.725 13.575 18.575Q13.6 18.425 13.725 18.325L14.125 18Q13.95 17.475 13.95 16.962Q13.95 16.45 14.125 15.925L13.725 15.6Q13.6 15.475 13.562 15.337Q13.525 15.2 13.6 15.05L13.75 14.825Q13.825 14.7 13.975 14.65Q14.125 14.6 14.275 14.675L14.8 14.875Q15.125 14.475 15.5 14.275Q15.875 14.075 16.425 13.95L16.5 13.45Q16.55 13.3 16.65 13.188Q16.75 13.075 16.9 13.075H17.175Q17.35 13.075 17.45 13.188Q17.55 13.3 17.575 13.45L17.65 13.95Q18.225 14.075 18.587 14.275Q18.95 14.475 19.3 14.875L19.8 14.675Q19.95 14.625 20.1 14.675Q20.25 14.725 20.325 14.85L20.475 15.075Q20.55 15.2 20.513 15.35Q20.475 15.5 20.35 15.6L19.975 15.925Q20.15 16.45 20.15 16.962Q20.15 17.475 19.975 18L20.35 18.325Q20.475 18.45 20.513 18.587Q20.55 18.725 20.475 18.85L20.325 19.075Q20.25 19.2 20.1 19.25Q19.95 19.3 19.8 19.25L19.3 19.05Q18.95 19.425 18.587 19.625Q18.225 19.825 17.65 19.95L17.575 20.475Q17.55 20.625 17.45 20.738Q17.35 20.85 17.175 20.85ZM17.05 19.125Q17.925 19.125 18.562 18.488Q19.2 17.85 19.2 16.95Q19.2 16.075 18.562 15.438Q17.925 14.8 17.05 14.8Q16.15 14.8 15.525 15.438Q14.9 16.075 14.9 16.95Q14.9 17.85 15.525 18.488Q16.15 19.125 17.05 19.125ZM11.25 11.425Q11.25 11.425 11.25 11.425Q11.25 11.425 11.25 11.425Q11.25 11.425 11.25 11.425Q11.25 11.425 11.25 11.425Q11.25 11.425 11.25 11.425Q11.25 11.425 11.25 11.425Z"/></svg>
